X: 39552
T: Teach Solais
R: reel
M: 4/4
K: Dmajor
|:fdAG FDAF|GBAG FDAF|GBAG FDFD|GDFD EGFE|DEFA dffd|
gbag fdaf|1 gbag fdfd|ggfg eaba:|2 gbag fded|cAGE DAFE||
|:DAFE DAFA|GAce dABA|1 GAce dABA|
GAFA EAFE:|2 GAce dfed|cAGE Daba||

